X:1
T:On The One Road
M:6/8
Q:260
K:G
e3e3|e3f3|g2ef2d|e6|

g3g3|g3a3|b2ga2f|g6|
e3e3|e3f3|g2ef2d|e6|
b3b3|b2c'b2a|g3e3|e2dB2c|
d3b3-|b3aba|g6|z2dd2d|
e3g3|d3B3|A6|z2dB2c|
d3b3-|b3aba|g3e3-|e2ef2g|
a3e3|f3g3|a6-|a6|
b3b3|b3b3|g3e3|e6|
a3a3|a3g3|f2ge2f|d2Bc2^c|
d3b3-|b3aba|g6-|g3efg|
a6|b6|g6-|g3z3|
